X:68
T:Trim the French. ThoH.068
Q:1/2=120
M:C
L:1/4
B:Thompson's Compleat Collection of 120 Favourite Hornpipes.
Z:Village Music Project, Simon Wilson 2016
O:England.
K:D
A|d2df|f2ed|B2Bd|d2cB|A2AF|A2Ad|AFED|E3A|d2df|f2ed|B2Bd|
d2cB|A2AF|E>FGB|AFTE2|D3:||:f|f2ed|f2ed|fdfa|a3g/f/|e2ef|B2Bd|
AFED|D2F2|G2EG|B2AG|F2DF|A>dcB|A2af|e>fgb|afTe2|d3:|

